local/share/icons/dracula-icons-main/24/places/folder-documents.svg

<?xml version="1.0" encoding="UTF-8"?>
<svg xmlns="http://www.w3.org/2000/svg" xmlns:xlink="http://www.w3.org/1999/xlink" width="24" height="24" viewBox="0 0 24 24">
<path fill-rule="nonzero" fill="rgb(100%, 100%, 100%)" fill-opacity="1" d="M 8 5 C 6.890625 5 6 5.890625 6 7 L 6 17 C 6 18.109375 6.890625 19 8 19 L 16 19 C 17.109375 19 18 18.109375 18 17 L 18 9 L 14 5 Z M 8 7 L 13.171875 7 L 16 9.828125 L 16 17 L 8 17 Z M 8 7 "/>
</svg>

<svg width="24" height="24" version="1.1" viewBox="0 0 24 24" xmlns="http://www.w3.org/2000/svg">
 <defs>
  <style id="current-color-scheme" type="text/css">.ColorScheme-Text { color:#FFFFFF; } .ColorScheme-Highlight { color:#5294e2; }</style>
 </defs>
 <path class="ColorScheme-Text" d="m8 5c-1.108 0-2 0.892-2 2v10c0 1.108 0.892 2 2 2h8c1.108 0 2-0.892 2-2v-8l-4-4zm0 2h5.1719l2.8281 2.8281v7.1719h-8z" fill="currentColor"/>
</svg>
